!!!COM: Bach, Johann Sebastian
!!!CDT: 1685/3//-1750/7/28/
!!!OTL@@DE: Wer nur den lieben Gott laesst walten
!!!SCT: Erk 339
!!!SCT: BWV 179
!!!AGN: 4-Part Chorale
!!!YEC: Copyright 2003 by Craig Stuart Sapp
!!!license: GNU General Public License (http://www.gnu.org/copyleft/gpl.html)
!!!SMA: 371 Bach Chorales, edited by Ludwig Erk, C.F. Peters
!!!PDT: 1850, 1865
!!!ONB: Harmony and Root analysis done manually by Craig Sapp
**kern	**kern	**kern	**kern	**root	**harm	**kern
*Iorgan	*Iorgan	*Iorgan	*Iorgan	*Iorgan	*	*Iorgan
!bass	!tenor	!alto	!soprno	!	!	!
*clefF4	*clefF4	*clefG2	*clefG2	*	*	*
*M4/4	*M4/4	*M4/4	*M4/4	*M4/4	*M4/4	*M4/4
*met(C)	*met(C)	*met(C)	*met(C)	*met(C)	*met(C)	*met(C)
*MM60	*MM60	*MM60	*MM60	*MM60	*MM60	*MM60
*k[]	*k[]	*k[]	*k[]	*k[]	*k[]	*k[]
*a:	*a:	*a:	*a:	*a:	*a:	*a:
*>A	*>A	*>A	*>A	*>A	*>A	*>A
8A	4c	4e	4e	4AA	i	4A 4cc 4ee
8G	.	.	.	.	.	.
=1	=1	=1	=1	=1	=1	=1
4F	8c	16e	4a	4FF	VI	4F 4a 4cc
.	.	16d	.	.	.	.
.	16B	4f	.	.	.	.
.	16A	.	.	.	.	.
4E	8G#	.	4b	4EE	V	4E 4g# 4b
.	8e	16e	.	.	.	.
.	.	16d	.	.	.	.
4AA	4e	8c	4cc	4AA	I	4A 4cc# 4ee
.	.	4a	.	.	.	.
4BB	4d#	.	4b	4BB	V/V	4B 4dd# 4ff#
.	.	[8g	.	.	.	.
=2	=2	=2	=2	=2	=2	=2
4C#	4e	8g]	4a	4AA	V7b/IV	4a 4C# 4ee 4gg
.	.	16f#	.	.	.	.
.	.	16e	.	.	.	.
4D#	4B	8f#	4b	4BB	Vb/V	4b 4D# 4ff#
.	.	8f#	.	.	.	.
2E	4.B	8f#	4.g#	2EE	V7	2E 2g# 2b 2dd
.	.	8e	.	.	.	.
.	.	8d	.	.	.	.
.	8A	8c	8f#	.	.	.
=3	=3	=3	=3	=3	=3	=3
4E;	4G#;	4B;	4e;	4EE;	V;	4E; 4g#; 4b;
4C#	4E	8e	4gn	4CC#	vii/IV	4C# 4e 4g#
.	.	8d	.	.	.	.
4AA	4A	4c#	4g	4AA	V7/IV	4A 4cc# 4ee 4gg
4F	4A	4d	4f	4DD	iv	4D 4f 4a
=4	=4	=4	=4	=4	=4	=4
8D	8G#	8B	4e	8EE	V7d	8e 8g# 8b 8D
8C	8A	8cn	.	8AA	ib	8a 8C 8ee
8F	8B	8d	4a	8BB	ii7Dc	8b 8dd 8F# 8aa
8E	8c	8e	.	8AA	ic	8a 8cc 8E
4D#	8c	4f#	4a	4DD#	vii7D/V	4D# 4f# 4a# 4cc#
.	8B	.	.	.	.	.
4E	4B	4e	4g#	4EE	V	4E 4g# 4b
=5	=5	=5	=5	=5	=5	=5
2.AA;	2.c#;	2.e;	2.a;	2.AA	I	2.A 2.cc# 2.ee
=:|!	=:|!	=:|!	=:|!	=:|!	=:|!	=:|!
*>B	*>B	*>B	*>B	*>B	*>B	*>B
4E	4e	4g#	4b	4EE	V	4E 4g# 4b
=6	=6	=6	=6	=6	=6	=6
4A	16e	4a	4cc	4AA	i	4A 4cc 4ee
.	16c	.	.	.	.	.
.	4f	.	.	.	.	.
8G	.	4b	4dd	4GG	V7/III	4G 4b 4dd 4ff
8F	16e	.	.	.	.	.
.	16f	.	.	.	.	.
8E	8c	8cc	4ee	4CC	III	4C 4e 4g
8D	8d	8g	.	.	.	.
4C	4e	8cc	4ee	4CC	III	4C 4e 4g
.	.	8b-	.	.	.	.
=7	=7	=7	=7	=7	=7	=7
8D	8f	4a	4dd	4DD	iv	4D 4f 4a
16E	8d	.	.	.	.	.
16F	.	.	.	.	.	.
8G	8g	4bn	4dd	4GG	V7/III	4G 4b 4dd 4ff
8GG	8f	.	.	.	.	.
4C;	4e;	4g;	4cc;	4CC;	III;	4C; 4e; 4g;
4C	4c	4g	4ee	4CC	III	4C 4e 4g
=8	=8	=8	=8	=8	=8	=8
4D	8c	4f	4dd	4DD	iv	4D 4f 4a
.	8B	.	.	.	.	.
4D#	8A	4f#	4cc	4DD#	vii7D/V	4D# 4f# 4a# 4cc#
.	16G#	.	.	.	.	.
.	16A	.	.	.	.	.
4E	8E	4g#	4b	4EE	V7	4E 4g# 4b 4dd
.	8dn	.	.	.	.	.
4Fn	8c	4a	4a	4FF	VI	4F 4a 4cc
.	8B	.	.	.	.	.
=9	=9	=9	=9	=9	=9	=9
8F#	4.A	8d#	4cc	4DD#	vii7D/V	4D# 4f# 4a# 4cc#
8D#	.	8f#	.	.	.	.
8E	.	8fn	4b	4EE	V7	4E 4g# 4b 4dd
8EE	8G#	16e	.	.	.	.
.	.	16dn	.	.	.	.
4AA;	4E;	4c#;	4a;	4AA;	I;	4A; 4cc#; 4ee;
==	==	==	==	==	==	==
*-	*-	*-	*-	*-	*-	*-
